X:1
T:Deskry Shiel
T:Deskry Shiel
T:Alexander Walker
C:Alexander Walker
L:1/8
M:2/2
K:Emin
V:1 treble 
V:1
 D | B,EEF GFEB | ADFD dDFD | B,EEF GFEe | dBAF BEE :| F | Eeef gdfd | eBdA BGAF | Eeef gefd | %9
 fbaf e/e/e ef | gbge fafd | efeB dA FD | EB,EF GFGA | dBAF BEE || %14

